img/ui/icons/transaction.svg.svg

<svg width="25" height="24" viewBox="0 0 25 24" fill="none" xmlns="http://www.w3.org/2000/svg">
<path d="M16.3572 7.64026C16.3572 7.54035 16.2754 7.4586 16.1755 7.4586H14.938C14.8698 7.4586 14.8063 7.4972 14.7767 7.55851L12.8535 11.3915H12.7785L10.8552 7.55851C10.8402 7.52862 10.8171 7.50347 10.7887 7.48584C10.7602 7.46821 10.7275 7.45879 10.694 7.4586H9.42922C9.3997 7.4586 9.37018 7.46541 9.34293 7.48131C9.25438 7.52899 9.22259 7.64026 9.27027 7.72654L11.6295 12.0772H10.3352C10.2353 12.0772 10.1536 12.159 10.1536 12.2589V12.8742C10.1536 12.9742 10.2353 13.0559 10.3352 13.0559H12.061V13.9415H10.3352C10.2353 13.9415 10.1536 14.0232 10.1536 14.1231V14.7385C10.1536 14.8384 10.2353 14.9202 10.3352 14.9202H12.061V16.3598C12.061 16.4597 12.1427 16.5414 12.2426 16.5414H13.3757C13.4756 16.5414 13.5574 16.4597 13.5574 16.3598V14.9179H15.2899C15.3898 14.9179 15.4716 14.8361 15.4716 14.7362V14.1209C15.4716 14.021 15.3898 13.9392 15.2899 13.9392H13.5574V13.0536H15.2899C15.3898 13.0536 15.4716 12.9719 15.4716 12.872V12.2566C15.4716 12.1567 15.3898 12.075 15.2899 12.075H13.982L16.3367 7.72427C16.3481 7.6993 16.3572 7.66978 16.3572 7.64026ZM4.76064 11.8229C4.80329 9.7534 5.64556 7.78078 7.11082 6.3187C7.84881 5.58072 8.70713 4.99942 9.6631 4.59523C10.6531 4.17742 11.7045 3.96397 12.7876 3.96397C13.873 3.96397 14.9243 4.17515 15.9121 4.59523C16.8681 4.99942 17.7264 5.58072 18.4644 6.3187C18.6915 6.54577 18.9026 6.7842 19.0979 7.03171L17.9626 7.91955C17.9355 7.94048 17.9149 7.96861 17.9031 8.00071C17.8914 8.03282 17.8889 8.0676 17.896 8.10104C17.9031 8.13449 17.9196 8.16525 17.9434 8.18978C17.9672 8.21431 17.9975 8.23163 18.0307 8.23973L21.5912 9.10941C21.7047 9.13666 21.816 9.05037 21.816 8.93456L21.8341 5.26736C21.8341 5.11523 21.6593 5.02894 21.5412 5.12431L20.4558 5.97355C18.6756 3.69603 15.903 2.23596 12.7899 2.23596C7.46506 2.23596 3.13481 6.50717 3.03717 11.8138C3.03656 11.8381 3.04081 11.8622 3.04967 11.8847C3.05853 11.9073 3.07181 11.9279 3.08874 11.9452C3.10567 11.9626 3.1259 11.9764 3.14824 11.9858C3.17058 11.9952 3.19458 12 3.21882 12H4.58125C4.67889 12 4.75837 11.9206 4.76064 11.8229ZM22.3836 12H21.0212C20.9236 12 20.8418 12.0795 20.8396 12.1771C20.7969 14.2466 19.9546 16.2193 18.4894 17.6813C17.7582 18.4156 16.8914 19.0009 15.9371 19.4048C14.9471 19.8226 13.8957 20.0361 12.8126 20.0361C11.7295 20.0361 10.6758 19.8249 9.68808 19.4048C8.7338 19.0009 7.86701 18.4156 7.1358 17.6813C6.90873 17.4543 6.69755 17.2159 6.50227 16.9683L7.63536 16.0805C7.66241 16.0596 7.683 16.0314 7.69477 15.9993C7.70654 15.9672 7.709 15.9325 7.70189 15.899C7.69477 15.8656 7.67836 15.8348 7.65454 15.8103C7.63072 15.7857 7.60046 15.7684 7.56724 15.7603L4.00676 14.8906C3.89322 14.8634 3.78196 14.9497 3.78196 15.0655L3.76379 18.7372C3.76379 18.8894 3.93864 18.9757 4.05672 18.8803L5.14212 18.031C6.9269 20.304 9.69944 21.7641 12.8126 21.7641C18.1374 21.7641 22.4677 17.4929 22.5653 12.1862C22.5659 12.162 22.5616 12.1379 22.5528 12.1153C22.5439 12.0927 22.5306 12.0722 22.5137 12.0548C22.4968 12.0375 22.4766 12.0237 22.4542 12.0143C22.4319 12.0049 22.4079 12 22.3836 12Z" fill="#0F0F0F"/>
</svg>

<svg width="25" height="24" fill="none" xmlns="http://www.w3.org/2000/svg"><path d="M16.357 7.64c0-.1-.082-.181-.181-.181h-1.238a.18.18 0 0 0-.161.1l-1.923 3.833h-.075l-1.924-3.833a.181.181 0 0 0-.161-.1H9.429a.17.17 0 0 0-.086.022.18.18 0 0 0-.073.246l2.36 4.35h-1.295c-.1 0-.181.082-.181.182v.615c0 .1.081.182.181.182h1.726v.886h-1.726c-.1 0-.181.081-.181.181v.616c0 .1.081.181.181.181h1.726v1.44c0 .1.082.181.182.181h1.133c.1 0 .181-.081.181-.181v-1.442h1.733c.1 0 .182-.082.182-.182v-.615c0-.1-.082-.182-.182-.182h-1.733v-.885h1.733c.1 0 .182-.082.182-.182v-.615c0-.1-.082-.182-.182-.182h-1.308l2.355-4.35a.207.207 0 0 0 .02-.085ZM4.761 11.823a8.009 8.009 0 0 1 2.35-5.504 8.006 8.006 0 0 1 5.677-2.355 8.006 8.006 0 0 1 5.677 2.355c.227.227.438.465.633.713l-1.135.888a.182.182 0 0 0 .068.32l3.56.87a.182.182 0 0 0 .225-.175l.018-3.668a.18.18 0 0 0-.293-.143l-1.085.85a9.705 9.705 0 0 0-7.666-3.738c-5.325 0-9.655 4.271-9.753 9.578A.181.181 0 0 0 3.22 12H4.58a.18.18 0 0 0 .18-.177ZM22.384 12H21.02c-.097 0-.18.08-.181.177a8.01 8.01 0 0 1-2.35 5.504 8.005 8.005 0 0 1-5.677 2.355 8.005 8.005 0 0 1-5.677-2.355 8.105 8.105 0 0 1-.634-.713l1.133-.887a.182.182 0 0 0-.068-.32l-3.56-.87a.182.182 0 0 0-.225.175l-.018 3.671a.18.18 0 0 0 .293.143l1.085-.849a9.73 9.73 0 0 0 7.67 3.733c5.325 0 9.656-4.271 9.753-9.578a.183.183 0 0 0-.11-.172.182.182 0 0 0-.071-.014Z" fill="#0F0F0F"/></svg>
